!!!!SEGMENT: pl-wnifc--2374-n--001-002_mikuli-karol--sieben-lieder-op-27-ich-wollt-meine-schmerzen-ergossen-sich.krn
!!!cenid: 18xx:3891
!!!COM: Mikuli, Karol
!!!COM-rismID: pe106110
!!!CDT: 1819-1897
!!!CNT:
!!!GTL: Sieben lieder op. 27
!!!OTL: Ich wollt' meine Schmerzen ergössen sich
!!!OMV: 002
!!!PDT: 1880
!!!AGN:
!!!SMS-siglum: PL-Wnifc
!!!SMS-shelfmark: 2374/n
!!!SMS-shelfwork: 001-002 G
!!!SMS-variant:
!!!SMS-altvar:
!!!NIFC-rismSourceID: 1001155254
!!!NIFC-rismChildID: 1001155258
!!!NIFC-islandoraID: nifc:211968
!!!URL-pdf-islandora: https://repozytorium.nifc.pl/islandora/object/nifc%3A211968/datastream/PDF/view
!!!URL-scan: https://polish.musicsources.pl/pl/lokalizacje/galeria/druki-muzyczne/16819 @EN{Scan on Polish Music Sources Website} @PL{Skany w portalu Dziedzictwo Muzyki Polskiej w otwartym dostępie}
!!!IIIF:
!!!ONB-nifc:
!!!AIN: 2 piano 1 tenor
!!!key: e
!!!filter-modern: sic -sq | shed -e "s/TX(.*):t=P:/tx$1:t=P:/LG" | shed -e "s/:rj/:RJ/L" | shed -k -e "s/([^a-gA-Gn#X-])[<>]/$1/g" | shed -e "s/LO:DY:(a|b|rj)/LO:dy:$1/L" | shed -e "s/-//B" | tie -s  | modori -m | humtr -p
**kern	**kern	**dynam	**kern	**text	**dynam
*part3	*part2	*part2	*part1	*part1	*part1
*staff3	*staff2	*	*staff1	*staff1	*
*I"Pianoforte.	*I"Pianoforte.	*	*I"Singstimme.	*	*
*I'pf	*I'pf	*	*I'V	*	*
*ICklav	*ICklav	*	*ICvox	*	*
*Ipiano	*Ipiano	*	*Itenor	*	*
*IGacmp	*IGacmp	*	*IGsolo	*	*
*mI"Pianoforte	*mI"Pianoforte	*	*mI"Voce	*	*
*clefF4	*clefG2	*	*clefG2	*	*
*k[f#]	*k[f#]	*	*k[f#]	*	*
*e:	*e:	*	*e:	*	*
*M6/8	*M6/8	*	*M6/8	*	*
=1	=1	=1	=1	=1	=1
!!!OMD:
!!!OMD-mod: Sehr bewegt. [quarter]. = 100.
*^	*	*	*	*	*
!	!	!	!	!LO:TX:a:B:t=Sehr bewegt. [quarter]. = 100.:mod=	!	!
(8G/L	4EE\	8B/L 8e 8b	f	2.r	.	.
8D#X/	.	8c/ 8f# 8a	.	.	.	.
8E/J	8ryy	8B/J 8g	.	.	.	.
8E/L	4.ryy	8B/L 8e 8g	.	.	.	.
8BB/	.	8A/ 8d#X 8f#	.	.	.	.
8C/J)	.	8G/J 8e	.	.	.	.
*v	*v	*	*	*	*	*
=2	=2	=2	=2	=2	=2
(<<8C\L	8G/L 8c 8e	.	2.r	.	.
8GG#X\	8Fn</ 8B 8dn	.	.	.	.
8AA\J	8E</J 8c	.	.	.	.
8AA\L	8E</L 8A< 8c<	.	.	.	.
8BB\	8E</ 8G< 8B<	.	.	.	.
8C\J)	8E#X</J 8F< 8A<	.	.	.	.
=3	=3	=3	=3	=3	=3
*	*^	*	*	*	*
*ped	*	*	*	*	*	*
!	!	!LO:TX:t=P:problem:mixed beam	!	!	!	!
[<2.BB\	4.B^/	8B\L	.	2.r	.	.
.	.	8E</ 8F#<	.	.	.	.
.	.	8E</J 8F#<	.	.	.	.
!	!	!LO:TX:t=P:problem:mixed beam	!	!	!	!
.	4e^/	8e\L	.	.	.	.
.	.	8F#</ 8B<	.	.	.	.
.	8f#^/	8f#\J	.	.	.	.
*Xped	*	*	*	*	*	*
=4	=4	=4	=4	=4	=4	=4
*ped	*	*	*	*	*	*
!	!	!LO:TX:t=P:problem:mixed beam	!	!	!	!
2.BBB\ 2.BB_<	4.b/	8b\L	.	2.r	.	.
.	.	8A</ 8B< 8e<	.	.	.	.
*Xped	*	*	*	*	*	*
.	.	8A</J 8B< 8e<	.	.	.	.
*ped	*	*	*	*	*	*
!	!	!LO:TX:t=P:problem:mixed beam	!	!	!	!
.	4.d#/	8d#X\L	.	.	.	.
.	.	8A</ 8B<	.	.	.	.
.	.	8A</J 8B<	.	.	.	.
*Xped	*	*	*	*	*	*
!!LO:LB:g=original	!	!	!	!	!	!
=5	=5	=5	=5	=5	=5	=5
!	!	!LO:TX:t=P:problem:mixed beam	!	!	!	!
!	!	!LO:N:vis=2	!	!	!	!
2.EE\ 2.BB]	2.e/	8e\L	.	2.r	.	.
.	.	8G</ 8B<	.	.	.	.
.	.	8G</J 8B<	.	.	.	.
!	!LO:TX:b:i:t=ritard.	!	!	!	!	!
.	.	8G</L 8B<	.	.	.	.
.	.	8G</ 8B<	.	.	.	.
.	.	8G</J 8B<	.	.	.	.
*	*v	*v	*	*	*	*
=6	=6	=6	=6	=6	=6
4EE\ 4E	8r	.	4r	.	.
.	8G</L 8B<	.	.	.	.
8r	8G</J 8B<	.	8r	.	.
!	!LO:TX:i:t=a tempo	!	!	!	!
4r	8G</L 8B<	.	4r	.	.
.	8G</ 8B<	.	.	.	.
!	!	!	!	!	!LO:DY:a
8r	8G</J 8B<	.	8b\	Ich	mf
=7	=7	=7	=7	=7	=7
[4.EE\	8r	.	8b\	wollt'	.
.	8G</L 8B< 8e	.	8a/	mei-	.
.	8G</J 8B< 8e	.	8g/	-ne	.
8EE\]	8G</L 8B< 8e	.	8g/	Schmer-	.
(<<4AA\	8F#</ 8c< 8e	.	8a/	-zen	.
.	8F#</J 8c< 8e	.	8f#/	er-	.
=8	=8	=8	=8	=8	=8
4.E\	8r	.	4.e/	-gö-	.
.	8G</L 8B< 8e	.	.	.	.
.	8G</J 8B< 8e	.	.	.	.
4.D\	8r	.	4e/	-ssen	.
.	8G#X</L 8B< 8e	.	.	.	.
.	8G#</J 8B< 8e	.	8e/	sich	.
=9	=9	=9	=9	=9	=9
!	!	!	!	!	!LO:DY:a
4.C\	8r	.	8e/	all'	<
.	8A</L 8c< 8e	.	8f#/	in	.
.	8A</J 8c< 8e	.	8g#X/	ein	.
4.AA\)	8r	.	8a/	ein-	.
.	8F#</L 8c< 8e	.	8b\	-zi-	.
.	8F#</J 8c< 8e	.	8cc\	-ges	[[
!!LO:LB:g=original	!	!	!	!	!
=10	=10	=10	=10	=10	=10
4.EE\	8r	.	4.b\	Wort,	.
.	8G</L 8B< 8e	.	.	.	.
.	8G</J 8B< 8e	.	.	.	.
4r	8G</L 8B< 8e	.	4r	.	.
.	8G</ 8B< 8e	.	.	.	.
8r	8b/J	.	8b\	das	.
=11	=11	=11	=11	=11	=11
!	!	!	!	!	!LO:DY:a
.	8qcc/	<	8qcc/	.	<
*	*^	*	*	*	*
8E\L 8B	8g/L 8b	4.ryy	.	8b\	gäb'	.
8E\ 8B	8g/ 8a#X	.	.	8a#X/	ich	.
8E\J 8B	8g/J 8b	.	.	8b\	den	.
8E\L 8B-X	4cc/	8g\L	.	8cc\	lu-	.
8E\ 8B-	.	8g\	.	8cc\	-sti-	.
8E-X\J 8A	8cc#X/	8g\J	.	8cc#X\	-gen	[[
=12	=12	=12	=12	=12	=12	=12
!	!	!	!	!	!	!LO:DY:a
!	!	!	!	!	!	!LO:DY:a
8D\L 8A	4.dd/	8g\L	[ f	4.dd\	Win-	f >
8D\ 8A	.	8g\	.	.	.	.
8D\J 8A	.	8g\J	.	.	.	.
8D\L 8A	4a/	8f#\L	.	4a/	-den,	.
8D\ 8A	.	8f#\	.	.	.	.
8D\J 8G#X	8b/	8fn\J	.	8b\	die	]
=13	=13	=13	=13	=13	=13	=13
8D\L 8A	8f#X/L 8dd	4.ryy	>	8dd\	tra-	.
8D\ 8A	8f#/ 8cc	.	.	8cc\	-gen	.
8D\J 8B	8g/J 8b	.	.	8b\	es	.
8D\L 8c#X	4a/	8e\L	.	4a/	lu-	.
8D\ 8c#	.	8e\	.	.	.	.
8D\J 8d	8b/	8cn\J 8f#	]	8b\	-stig	.
*	*v	*v	*	*	*	*
=14	=14	=14	=14	=14	=14
8G\L 8d	8B/L 8g	.	4.g/	fort,	.
8G\	8B/ 8d 8g	<	.	.	.
8G\J	8B/J 8d 8g	.	.	.	.
8G\L	8B/L 8d 8g	.	4r	.	.
8E\	8B/ 8e 8g	.	.	.	.
8C\J	8e/J 8f# 8a	[[	8a/	sie	.
!!LO:PB:g=original	!	!	!	!	!
=15	=15	=15	=15	=15	=15
*^	*	*	*	*	*
!	!LO:N:vis=2	!	!	!	!	!LO:DY:a
2.BB/	8BB\L	8d#X/L 8f# 8b	mf	8b\	tra-	<
.	8B\	8c##X/ 8e#X 8a#X	<	8a#X/	-gen	.
.	8B\J	8d#/J 8f# 8b	.	8b\	zu	.
.	8B\L	4en/ 4g 4ccn	.	4cc\	dir,	.
.	8B\	.	.	.	.	[[
!	!	!	!	!	!	!LO:DY:a
.	8B\J	8g\ 8cc 8ee	[[	8ee\	Ge-	f
=16	=16	=16	=16	=16	=16	=16
!	!LO:N:vis=2	!	!	!	!	!LO:DY:a
2.BB/	8BB\L	4.g\ 4.cc 4.ee	>	4.ee\	-lieb-	>
.	8B\	.	.	.	.	.
.	8B\J	.	.	.	.	.
.	8B\L	4f#/ 4b 4dd#X	.	4dd#X\	-te,	.
.	8B\	.	.	.	.	.
.	8B\J	8e/ 8g 8cc	]	8cc\	das	]
=17	=17	=17	=17	=17	=17	=17
!	!LO:N:vis=2	!	!	!	!	!
2.BB/	8BB\L	(8e^>/L 8g 8cc	.	(8cc\L	schmer-	.
.	8B\	8d#X/ 8f# 8b	.	8b\J)	.	.
.	8B\J	8c/J) 8f# 8a	.	8a/	-zer-	.
.	8B\L	8B/L 8e 8g	.	(8g/L	-füll-	.
.	8B\	8c/ 8e 8a	.	8a/J)	.	.
.	8B\J	8A/J 8d# 8f#	.	8f#/	-te	.
*v	*v	*	*	*	*	*
=18	=18	=18	=18	=18	=18
[<4.E\	8G</L 8B< 8e	.	4.e/	Wort.	.
.	8G</ 8B< 8e	.	.	.	.
.	8G</J 8B< 8e	.	.	.	.
4E\]	8G</L 8B< 8e	.	4r	.	.
.	8G</ 8B< 8e	.	.	.	.
8r	8G</J 8B< 8e	.	8e/	Du	.
=19	=19	=19	=19	=19	=19
4.D\	8r	.	8f#/	hörst	.
.	8A</L 8d 8f#	.	8f#/	es	.
.	8A</J 8d 8f#	.	8f#/	zu	.
4GG\	8B</L 8d 8g	.	4g/	je-	.
.	8B</ 8d 8g	.	.	.	.
8EE\	8c#X/J 8g	.	8b\	-der	.
!!LO:LB:g=original	!	!	!	!	!
=20	=20	=20	=20	=20	=20
[4.FF#/	8r	.	4.b\	Stun-	.
.	8c#X/L 8a	.	.	.	.
.	8c#/J 8a	.	.	.	.
4FF#/]	8c#/L 8f#	.	4a#X/	-de,	.
.	8c#/ 8f#	.	.	.	.
8DD#X/	8cn/J 8f#	.	8an/	du	.
=21	=21	=21	=21	=21	=21
4.EE\	8B</L 8e	.	8g/	hörst	.
.	8A</ 8e	.	8f#/	es	.
.	8G</J 8e	.	8e/	an	.
4.AA\	8F#</L 8A< 8e	.	(8e/L	je-	.
.	8F#</ 8B< 8e	.	8d/J)	.	.
.	8F#</J 8c< 8f#	.	8B/	-dem	.
=22	=22	=22	=22	=22	=22
4.BB\	8F#</L 8B< 8d#X	<	[4.B/	Ort	.
.	8dn/ 8b	.	.	.	.
.	8d#X/J 8b#X	.	.	.	.
4BB\	8e/L 8cc#X	.	4B/]	.	.
.	8e#X/ 8cc##X	.	.	.	.
!	!	!	!	!	!LO:DY:a
8BB\	8f#/J 8dd#X	[[	8b\	Und	mf
=23	=23	=23	=23	=23	=23
[4.EE\ [<<4.E	8g\ 8ee	fz	8b\	hast	.
.	8G</L 8B< 8e	.	8a/	du	.
.	8G</J 8B< 8e	.	8g/	zum	.
8EE\] 8E]	8G</L 8B< 8e	.	8g/	nächt-	.
(<<4AA\	8F#</ 8c< 8e	.	8a/	-li-	.
.	8F#</J 8c< 8e	.	8f#/	-chen	.
=24	=24	=24	=24	=24	=24
!LO:TX:b:i:t=legato	!	!	!	!	!
4.E\	8r	.	8e/	Schlum-	.
.	8G</L 8B< 8e	.	8e/	-mer	.
.	8G</J 8B< 8e	.	8r	.	.
4.D\	8r	.	4r	.	.
.	8G#X</L 8B< 8e	.	.	.	.
.	8G#</J 8B< 8e	.	8e/	ge-	.
!!LO:LB:g=original	!	!	!	!	!
=25	=25	=25	=25	=25	=25
4.C/	8r	.	8e/	-schlos-	.
.	8A/L 8c 8e	.	8f#/	-sen	.
.	8A/J 8c 8e	.	8g#X/	die	.
4.AA\	8r	.	(8a/L	Au-	.
.	8F#</L 8c 8e	.	8b/J)	.	.
.	8F#</J 8c 8e	.	8cc\	-gen	.
=26	=26	=26	=26	=26	=26
4.EE\	8r	<	4b\	kaum,	.
.	8G</L 8B< 8e	.	.	.	.
.	8G</J 8B< 8e	.	8r	.	.
4.FF#\)	8r	.	4r	.	.
.	8A/L 8B 8d#X	.	.	.	.
!	!	!	!	!	!LO:DY:a
.	8A/J 8B 8d#	.	8b\	so	f
=27	=27	=27	=27	=27	=27
2.GG\	8r	f	8ee^\	wird	.
.	8G</L 8B< 8e	.	8b^\	dich	.
.	8G</J 8B< 8e	.	8a^>/	mein	.
.	8G</L 8B< 8e	.	(8g^>/L	Wort	.
.	8G</ 8B< 8e	.	8f#^>/J)	.	.
.	8G</J 8B< 8e	.	8e^>/	ver-	.
=28	=28	=28	=28	=28	=28
*	*^	*	*	*	*
2.AA/	8r	8ryy	.	4.d/	-fol-	.
.	8B\L 8c	8e/L	.	.	.	.
.	8B\J 8c	8e/J	.	.	.	.
.	8A\L 8c	8e/L	.	4c/	-gen	.
.	8G\ 8c	8e/	.	.	.	.
.	8F#\J 8c	8e/J	.	8r	.	.
*	*v	*v	*	*	*	*
=29	=29	=29	=29	=29	=29
[<4.BB\	8r	.	8B/	bis	.
.	8F#</L 8B< 8e	.	8b\	in	.
.	8F#</J 8A< 8e	.	8cc\	den	.
4.BBB\ 4.BB]	8r	.	4cc^\	tief-	.
.	8F#</L 8A< 8e	.	.	.	.
.	8F#</J 8A< 8d#X	.	8b\	-sten	.
!!LO:LB:g=original	!	!	!	!	!
=30	=30	=30	=30	=30	=30
8GG/L 8G	8B/L 8e 8b	ff	8e/	Traum.	.
!	!LO:TX:b:i:t=sempre	!	!	!	!
8DD#X/ 8D#X	8c/ 8f# 8a	.	8r	.	.
8EE/J 8E	8B/J 8e 8g	.	8r	.	.
8EE/L 8E	8B/L 8e 8g	.	4r	.	.
8AAA/ 8AA	8c/ 8f# 8a	.	.	.	.
8BBB/J 8BB	8A/J 8d#X 8f#	.	8r	.	.
=31	=31	=31	=31	=31	=31
4.CC\ 4.C	4.E<^>/ 4.G< 4.e	.	2.r	.	.
4.CC#X\ 4.C#X	4.E<^>/ 4.F#< 4.e	.	.	.	.
=32	=32	=32	=32	=32	=32
4.CC\ 4.C	4.E<^>/ 4.G< 4.e	.	2.r	.	.
4.BBB\ 4.BB	4.E<^>/ 4.G#X< 4.e	.	.	.	.
=33	=33	=33	=33	=33	=33
2.AAA#X;<<\ 2.AA#X	2.E<^>;/ 2.Gn< 2.e	.	2.r;	.	.
=34	=34	=34	=34	=34	=34
[4.BBB\ [<<4.BB	[>>4.E</ [>>4.F#< 4.e	f	2.r	.	.
8BBB\L] 8BB]	8E</L] 8F#<] 8e	.	.	.	.
8BBB\ 8BB	8F#</ 8An< 8e	.	.	.	.
8BBB\J 8BB	8F#</J 8A< 8B<	.	.	.	.
=35	=35	=35	=35	=35	=35
4.EE\ 4.BB	4.G</ 4.B< 4.e	.	2.r	.	.
[4.EEE\ [>>4.EE	[4.E</	.	.	.	.
=36	=36	=36	=36	=36	=36
4.EEE\] 4.EE]	4.E</]	.	2.r	.	.
.	8qD#X</	.	.	.	.
4.AAA\ 4.EE	4.AA</ 4.C< 4.E<	.	.	.	.
=37	=37	=37	=37	=37	=37
.	8qD#X</	.	.	.	.
2.EEE;<<\ 2.EE	2.GG<;/ 2.BB< 2.E<	.	2.r;	.	.
==	==	==	==	==	==
*-	*-	*-	*-	*-	*-
!!!system-decoration: s1{(s2,s3)}
!!!RDF**kern: > = above
!!!RDF**kern: < = below
!!!ENC: Berenika Jozajtis
!!!END: 2022-07-23
!!!ENC: Natalia Wrzos
!!!END: 2022-08-17
!!!ENC-modern: Andrzej Borzym
!!!END-modern: 2022-08-27
!!!YEC: Copyright 2022 Narodowy Instytut Fryderyka Chopina (https://polishscores.org)
!!!YEM: License CC-BY-4.0 (https://creativecommons.org/licenses/by/4.0)
